public/images/icon-gitlab-white.svg

<svg width="40" height="40" viewBox="0 0 40 40" fill="none" xmlns="http://www.w3.org/2000/svg">
<g id="icon/gitlab">
<path id="vector" d="M35.8909 16.2508L35.8452 16.134L31.4187 4.58188C31.3287 4.35546 31.1692 4.1634 30.9632 4.03323C30.7571 3.90528 30.5167 3.84365 30.2744 3.85667C30.0322 3.8697 29.7997 3.95674 29.6085 4.10605C29.4194 4.25964 29.2823 4.46777 29.2157 4.70211L26.2269 13.8463H14.1244L11.1357 4.70211C11.0708 4.46649 10.9334 4.25732 10.7428 4.10435C10.5516 3.95504 10.3192 3.868 10.0769 3.85498C9.83465 3.84196 9.59423 3.90359 9.38812 4.03154C9.18259 4.16223 9.02326 4.35413 8.9326 4.58019L4.49769 16.1272L4.45366 16.244C3.81646 17.909 3.73781 19.7359 4.22957 21.4494C4.72133 23.163 5.75684 24.6702 7.17997 25.7438L7.19521 25.7556L7.23586 25.7844L13.9788 30.834L17.3147 33.3588L19.3468 34.893C19.5845 35.0735 19.8747 35.1712 20.1731 35.1712C20.4716 35.1712 20.7618 35.0735 20.9995 34.893L23.0315 33.3588L26.3674 30.834L33.151 25.754L33.168 25.7404C34.5879 24.6666 35.621 23.1609 36.112 21.4497C36.603 19.7385 36.5254 17.9142 35.8909 16.2508V16.2508Z" fill="white"/>
</g>
</svg>

<svg xmlns="http://www.w3.org/2000/svg" width="40" height="40" fill="none"><path fill="#fff" d="m35.89 16.25-.045-.116L31.42 4.582a1.153 1.153 0 0 0-1.145-.725c-.242.013-.474.1-.666.249-.189.154-.326.362-.392.596l-2.99 9.144H14.125l-2.988-9.144a1.162 1.162 0 0 0-.393-.598 1.185 1.185 0 0 0-1.355-.072c-.205.13-.365.322-.455.548L4.498 16.127l-.044.117a8.22 8.22 0 0 0 2.726 9.5l.015.012.04.028 6.744 5.05 3.336 2.525 2.032 1.534a1.366 1.366 0 0 0 1.652 0l2.033-1.534 3.335-2.525 6.784-5.08.017-.014a8.223 8.223 0 0 0 2.723-9.49Z"/></svg>
